data/zen-old-mincho.svg

<svg width="96.474" height="20.272" viewBox="0 0 96.474 20.272" xmlns="http://www.w3.org/2000/svg"><path transform="translate(0 16.24) scale(.014 -.014)" d="m593-1q-2 0-14 0-24 1-90 2.5t-170 0.5l-269-2q-20 0-23.5 13t9.5 28q15 18 46 59.5t71.5 97 84.5 118 86 123 77.5 111 58 84 26.5 39.5q5 8 2 13t-12 5h-212q-50 0-84-20.5t-54.5-50.5-32.5-59q-3-7-8.5-9t-10.5-1q-13 1-13 14 0 4 1 22.5t2 42.5 2.5 44.5 1.5 27.5q1 24 26 24 5 0 27-0.5t71-1 134-0.5h258q17 0 22.5-13.5t-5.5-27.5q-3-4-22.5-32.5t-51.5-73.5-71-100-80-113.5-80-113.5-70.5-100-51.5-72.5-22-31.5q-4-5-2-9t9-4l279 2q40 0 67 15t44.5 38 28 48 17.5 44q2 8 6.5 9.5t11.5 0.5q14-3 14-14 0-4-1-24.5t-2-47-2.5-49.5-1.5-32q-1-24-27-24z"/><path transform="translate(9.352 16.24) scale(.014 -.014)" d="m266-12q-65 0-114.5 29t-76.5 78.5-27 112.5q0 44 15.5 85.5t44 75 67.5 53.5 85 20q49 0 84-21t58-53.5 34-68 11-64.5q0-15-18-15h-269q-10 0-13-3t-3-11q0-66 18-104t48-54 65-16q36 0 63 13t45 30 28 30q10 14 24 4 13-8 5-22-10-17-32.5-40.5t-57.5-41-84-17.5zm-103 271h167q19 0 19 17 0 28-8 59t-28 52.5-55 21.5q-30 0-51.5-20t-35-51-20.5-66q-3-13 12-13z"/><path transform="translate(16.1 16.24) scale(.014 -.014)" d="m57 0q-14 0-14 16t14 16q30 0 39 11t9 39v267q0 17-2 27.5t-16 13.5q-7 2-16.5 3.5t-15.5 2.5q-13 1-13 16 0 6 3.5 11t10.5 5q3 0 17.5 0.5t33 0.5 34.5 0.5 21 0.5q23 0 23-24v-36q0-3 2.5-3.5t6.5 3.5q19 26 51 49t73 23q32 0 61-11.5t47.5-41.5 18.5-86v-219q0-29 8-40.5t30-11.5q14 0 14-16t-14-16q-10 0-33 1t-46 1q-24 0-46.5-1t-33.5-1q-14 0-14 16t14 16q28 0 33.5 11t5.5 39v209q0 51-18.5 72.5t-53.5 21.5q-26 0-50-16t-39-42.5-15-58.5v-184q0-29 7-40.5t28-11.5q14 0 14-16t-14-16q-10 0-31 1t-45 1-51.5-1-37.5-1z"/><path transform="translate(27.258 16.24) scale(.014 -.014)" d="m358-12q-65 0-122 26t-100.5 75.5-68.5 118.5-25 154q0 86 26 155t70.5 118.5 101 76 118.5 26.5 119-26.5 101.5-76 70.5-118.5 26-155q0-85-25-154t-68.5-118.5-101-75.5-122.5-26zm0 35q55 0 102.5 31.5t77 105.5 29.5 202-29.5 202.5-77 106-102.5 31.5q-54 0-101.5-31.5t-77-106-29.5-202.5 29.5-202 77-105.5 101.5-31.5z"/><path transform="translate(37.38 16.24) scale(.014 -.014)" d="m64 0q-14 0-14 16t14 16q35 0 44 11t9 39v561q0 25-5 33.5t-18 9.5q-7 2-19 3t-18 2q-13 3-13 17 0 6 4 11t10 5q3 0 19.5 0.5t37.5 0.5 38.5 0.5 22.5 0.5q23 0 23-24v-618q0-29 9.5-40.5t41.5-11.5q14 0 14-16t-14-16q-10 0-39.5 1t-52.5 1q-24 0-53.5-1t-40.5-1z"/><path transform="translate(41.412 16.24) scale(.014 -.014)" d="m227-12q-39 0-80.5 22t-70 69.5-28.5 125.5q0 60 17.5 105t44.5 74 57.5 43.5 56.5 14.5q45 0 73-16t46-33q6-6 9-3.5t3 8.5v245q0 21-6.5 31t-23.5 12q-7 2-21.5 3.5t-20.5 2.5q-13 2-13 16 0 6 4 11t10 5q3 0 21 0.5t41.5 0.5 43 0.5 24.5 0.5q23 0 23-24v-618q0-25 4.5-33.5t17.5-11.5q6-1 14.5-2t13.5-3q13-1 13-16 0-16-14-16-3 0-18-0.5t-34-0.5-35.5-0.5-21.5-0.5q-23 0-23 21v25q0 6-3 6.5t-8-4.5q-8-9-23-23.5t-37.5-25.5-55.5-11zm20 38q25 0 49.5 17t41.5 49.5 17 77.5v112q0 31-12.5 58.5t-36.5 45-58 17.5q-60 0-85-56t-25-148q0-58 10.5-92.5t27.5-52 36-23 35-5.5z"/><path transform="translate(52.612 16.24) scale(.014 -.014)" d="m47 0q-14 0-14 16 0 7 3.5 12t10.5 5q35 0 56 29.5t21 104.5v457q0 46-21 57.5t-52 11.5q-7 0-10.5 5t-3.5 12q0 6 3.5 11t10.5 5q8 0 44.5-1.5t111.5-1.5q19 0 29-6.5t14-19.5q2-6 13-36.5t27.5-76.5 35.5-99 38-105.5 35-96.5 25.5-71 10.5-29q2-5 6-4.5t5 4.5q2 6 12 35t25.5 73.5 34 96.5 36.5 103.5 33.5 95.5 25.5 72.5 12 33.5q6 17 17.5 23.5t27.5 6.5q74 0 106.5 1.5t39.5 1.5 10.5-5 3.5-11q0-7-3.5-12t-10.5-5q-30 0-48-12t-18-48v-536q0-40 15-52t46-12q7 0 10.5-5t3.5-12q0-16-14-16-10 0-40 1t-76 1-75-1-40-1q-14 0-14 16 0 7 4 12t10 5q38 0 59.5 10.5t21.5 53.5v558q0 6-4.5 7t-6.5-4q-1-4-13.5-38.5t-31.5-88.5-41.5-118.5-45.5-129.5-42.5-120.5-32-91.5-14.5-42q-4-10-13-10t-12 9q-1 3-14 37.5t-34 89-45.5 118.5-49 127.5-45 117-33 86-12.5 32.5q-1 3-5 2.5t-4-5.5v-465q0-52 12.5-81t32-41.5 40.5-12.5q7 0 10.5-5t3.5-12q0-16-14-16-10 0-32.5 1t-67.5 1q-52 0-70.5-1t-29.5-1z"/><path transform="translate(64.638 16.24) scale(.014 -.014)" d="m64 0q-14 0-14 16t14 16q35 0 44 12t9 39v264q0 25-5 33.5t-18 9.5q-7 2-19 3t-18 2q-13 3-13 17 0 6 4 11t10 5q3 0 19.5 0.5t37.5 0.5 38.5 0.5 22.5 0.5q23 0 23-24v-323q0-27 8.5-39t37.5-12q14 0 14-16t-14-16q-10 0-37 1t-50 1q-24 0-53.5-1t-40.5-1zm87 573q-23 0-39 16.5t-16 38.5q0 23 16 39t39 16 39-16 16-39q0-22-16-38.5t-39-16.5z"/><path transform="translate(68.67 16.24) scale(.014 -.014)" d="m57 0q-14 0-14 16t14 16q30 0 39 11t9 39v267q0 17-2 27.5t-16 13.5q-7 2-16.5 3.5t-15.5 2.5q-13 1-13 16 0 6 3.5 11t10.5 5q3 0 17.5 0.5t33 0.5 34.5 0.5 21 0.5q23 0 23-24v-36q0-3 2.5-3.5t6.5 3.5q19 26 51 49t73 23q32 0 61-11.5t47.5-41.5 18.5-86v-219q0-29 8-40.5t30-11.5q14 0 14-16t-14-16q-10 0-33 1t-46 1q-24 0-46.5-1t-33.5-1q-14 0-14 16t14 16q28 0 33.5 11t5.5 39v209q0 51-18.5 72.5t-53.5 21.5q-26 0-50-16t-39-42.5-15-58.5v-184q0-29 7-40.5t28-11.5q14 0 14-16t-14-16q-10 0-31 1t-45 1-51.5-1-37.5-1z"/><path transform="translate(75.908 16.24) scale(.014 -.014)" d="m258-12q-52 0-100 23.5t-79 72-31 123.5q0 63 28 116.5t78.5 86 117.5 32.5q36 0 69-12t54.5-35 21.5-55q0-24-16.5-45t-41.5-21q-21 0-37.5 13t-16.5 35q0 28 28 48 12 9-0.5 21.5t-54.5 12.5q-18 0-41-9.5t-44.5-32-35-60.5-13.5-95q0-80 37-127.5t93-47.5q38 0 65.5 16.5t45 39 24.5 38.5q7 15 23 8 14-6 9-20-8-23-29-52.5t-58-51.5-96-22z"/><path transform="translate(82.376 16.24) scale(.014 -.014)" d="m52 0q-7 0-10.5 5t-3.5 11q0 7 3.5 12t10.5 5q35 0 44 10.5t9 38.5v561q0 25-5 33.5t-18 9.5q-7 1-19 2.5t-18 2.5q-13 2-13 16 0 7 4 12t10 5q3 0 19.5 0.5t37.5 0.5 38.5 0.5 22.5 0.5q23 0 23-24v-331q0-3 2.5-4t5.5 3q22 27 53.5 49.5t73.5 22.5q32 0 60-12t45.5-45.5 17.5-96.5v-204q0-29 6.5-40t24.5-11q7 0 10.5-5t3.5-12q0-6-3.5-11t-10.5-5q-10 0-29.5 1t-42.5 1q-24 0-46.5-1t-33.5-1q-6 0-10 5t-4 11q0 7 4 12t10 5q28 0 33.5 10.5t5.5 38.5v198q0 58-18 83.5t-55 25.5q-25 0-48.5-15.5t-39-41-15.5-57.5v-191q0-29 8.5-40t32.5-11q7 0 10.5-5t3.5-12q0-6-3.5-11t-10.5-5q-10 0-34 1t-48 1-53.5-1-40.5-1z"/><path transform="translate(89.6 16.24) scale(.014 -.014)" d="m253-12q-57 0-104.5 31t-75.5 82.5-28 113.5 28 113.5 75.5 82.5 104.5 31q58 0 105.5-31t75.5-82.5 28-113.5-28-113.5-75.5-82.5-105.5-31zm0 31q56 0 84 54t28 142-28 142-84 54q-55 0-83.5-54t-28.5-142 28.5-142 83.5-54z"/></svg>

<?xml version="1.0" encoding="utf-8" ?>
<svg baseProfile="tiny" height="100%" version="1.2" width="100%" xmlns="http://www.w3.org/2000/svg" xmlns:ev="http://www.w3.org/2001/xml-events" xmlns:xlink="http://www.w3.org/1999/xlink"><defs /><g><path d="M593 -1Q591 -1 579 -1Q555 0 489.0 1.5Q423 3 319 2L50 0Q30 0 26.5 13.0Q23 26 36 41Q51 59 82.0 100.5Q113 142 153.5 197.5Q194 253 238.0 315.5Q282 378 324.0 438.5Q366 499 401.5 549.5Q437 600 459.5 633.5Q482 667 486 673Q491 681 488.0 686.0Q485 691 476 691H264Q214 691 180.0 670.5Q146 650 125.5 620.0Q105 590 93 561Q90 554 84.5 552.0Q79 550 74 551Q61 552 61 565Q61 569 62.0 587.5Q63 606 64.0 630.0Q65 654 66.5 674.5Q68 695 68 702Q69 726 94 726Q99 726 121.0 725.5Q143 725 192.0 724.5Q241 724 326 724H584Q601 724 606.5 710.5Q612 697 601 683Q598 679 578.5 650.5Q559 622 527.0 577.0Q495 532 456.0 477.0Q417 422 376.0 363.5Q335 305 296.0 250.0Q257 195 225.5 150.0Q194 105 174.0 77.5Q154 50 152 46Q148 41 150.0 37.0Q152 33 159 33L438 35Q478 35 505.0 50.0Q532 65 549.5 88.0Q567 111 577.5 136.0Q588 161 595 180Q597 188 601.5 189.5Q606 191 613 190Q627 187 627 176Q627 172 626.0 151.5Q625 131 624.0 104.5Q623 78 621.5 55.0Q620 32 620 23Q619 -1 593 -1Z" transform="translate(0.0, 72) scale(0.072, -0.072)" /><path d="M266 -12Q201 -12 151.5 17.0Q102 46 75.0 95.5Q48 145 48 208Q48 252 63.5 293.5Q79 335 107.5 368.5Q136 402 175.0 422.0Q214 442 260 442Q309 442 344.0 421.0Q379 400 402.0 367.5Q425 335 436.0 299.5Q447 264 447 235Q447 220 429 220H160Q150 220 147.0 217.0Q144 214 144 206Q144 140 162.0 102.0Q180 64 210.0 48.0Q240 32 275 32Q311 32 338.0 45.0Q365 58 383.0 75.0Q401 92 411 105Q421 119 435 109Q448 101 440 87Q430 70 407.5 46.5Q385 23 350.0 5.5Q315 -12 266 -12ZM163 259H330Q349 259 349 276Q349 304 341.0 335.0Q333 366 313.0 387.5Q293 409 258 409Q228 409 206.5 389.0Q185 369 171.5 338.0Q158 307 151 272Q148 259 163 259Z" transform="translate(48.096, 72) scale(0.072, -0.072)" /><path d="M57 0Q43 0 43 16Q43 32 57 32Q87 32 96.0 43.0Q105 54 105 82V349Q105 366 103.0 376.5Q101 387 87 390Q80 392 70.5 393.5Q61 395 55 396Q42 397 42 412Q42 418 45.5 423.0Q49 428 56 428Q59 428 73.5 428.5Q88 429 106.5 429.0Q125 429 141.0 429.5Q157 430 162 430Q185 430 185 406V370Q185 367 187.5 366.5Q190 366 194 370Q213 396 245.0 419.0Q277 442 318 442Q350 442 379.0 430.5Q408 419 426.5 389.0Q445 359 445 303V84Q445 55 453.0 43.5Q461 32 483 32Q497 32 497 16Q497 0 483 0Q473 0 450.0 1.0Q427 2 404 2Q380 2 357.5 1.0Q335 0 324 0Q310 0 310 16Q310 32 324 32Q352 32 357.5 43.0Q363 54 363 82V291Q363 342 344.5 363.5Q326 385 291 385Q265 385 241.0 369.0Q217 353 202.0 326.5Q187 300 187 268V84Q187 55 194.0 43.5Q201 32 222 32Q236 32 236 16Q236 0 222 0Q212 0 191.0 1.0Q170 2 146 2Q122 2 94.5 1.0Q67 0 57 0Z" transform="translate(82.8, 72) scale(0.072, -0.072)" /><path d="M358 -12Q293 -12 236.0 14.0Q179 40 135.5 89.5Q92 139 67.0 208.0Q42 277 42 362Q42 448 68.0 517.0Q94 586 138.5 635.5Q183 685 239.5 711.5Q296 738 358 738Q420 738 477.0 711.5Q534 685 578.5 635.5Q623 586 649.0 517.0Q675 448 675 362Q675 277 650.0 208.0Q625 139 581.5 89.5Q538 40 480.5 14.0Q423 -12 358 -12ZM358 23Q413 23 460.5 54.5Q508 86 537.5 160.0Q567 234 567 362Q567 490 537.5 564.5Q508 639 460.5 670.5Q413 702 358 702Q304 702 256.5 670.5Q209 639 179.5 564.5Q150 490 150 362Q150 234 179.5 160.0Q209 86 256.5 54.5Q304 23 358 23Z" transform="translate(140.184, 72) scale(0.072, -0.072)" /><path d="M64 0Q50 0 50 16Q50 32 64 32Q99 32 108.0 43.0Q117 54 117 82V643Q117 668 112.0 676.5Q107 685 94 686Q87 688 75.0 689.0Q63 690 57 691Q44 694 44 708Q44 714 48.0 719.0Q52 724 58 724Q61 724 77.5 724.5Q94 725 115.0 725.0Q136 725 153.5 725.5Q171 726 176 726Q199 726 199 702V84Q199 55 208.5 43.5Q218 32 250 32Q264 32 264 16Q264 0 250 0Q240 0 210.5 1.0Q181 2 158 2Q134 2 104.5 1.0Q75 0 64 0Z" transform="translate(192.24, 72) scale(0.072, -0.072)" /><path d="M227 -12Q188 -12 146.5 10.0Q105 32 76.5 79.5Q48 127 48 205Q48 265 65.5 310.0Q83 355 110.0 384.0Q137 413 167.5 427.5Q198 442 224 442Q269 442 297.0 426.0Q325 410 343 393Q349 387 352.0 389.5Q355 392 355 398V643Q355 664 348.5 674.0Q342 684 325 686Q318 688 303.5 689.5Q289 691 283 692Q270 694 270 708Q270 714 274.0 719.0Q278 724 284 724Q287 724 305.0 724.5Q323 725 346.5 725.0Q370 725 389.5 725.5Q409 726 414 726Q437 726 437 702V84Q437 59 441.5 50.5Q446 42 459 39Q465 38 473.5 37.0Q482 36 487 34Q500 33 500 18Q500 2 486 2Q483 2 468.0 1.5Q453 1 434.0 1.0Q415 1 398.5 0.5Q382 0 377 0Q354 0 354 21V46Q354 52 351.0 52.5Q348 53 343 48Q335 39 320.0 24.5Q305 10 282.5 -1.0Q260 -12 227 -12ZM247 26Q272 26 296.5 43.0Q321 60 338.0 92.5Q355 125 355 170V282Q355 313 342.5 340.5Q330 368 306.0 385.5Q282 403 248 403Q188 403 163.0 347.0Q138 291 138 199Q138 141 148.5 106.5Q159 72 176.0 54.5Q193 37 212.0 31.5Q231 26 247 26Z" transform="translate(212.976, 72) scale(0.072, -0.072)" /><path d="M47 0Q33 0 33 16Q33 23 36.5 28.0Q40 33 47 33Q82 33 103.0 62.5Q124 92 124 167V624Q124 670 103.0 681.5Q82 693 51 693Q44 693 40.5 698.0Q37 703 37 710Q37 716 40.5 721.0Q44 726 51 726Q59 726 95.5 724.5Q132 723 207 723Q226 723 236.0 716.5Q246 710 250 697Q252 691 263.0 660.5Q274 630 290.5 584.0Q307 538 326.0 485.0Q345 432 364.0 379.5Q383 327 399.0 283.0Q415 239 424.5 212.0Q434 185 435 183Q437 178 441.0 178.5Q445 179 446 183Q448 189 458.0 218.0Q468 247 483.5 291.5Q499 336 517.5 388.0Q536 440 554.0 491.5Q572 543 587.5 587.0Q603 631 613.0 659.5Q623 688 625 693Q631 710 642.5 716.5Q654 723 670 723Q744 723 776.5 724.5Q809 726 816 726Q823 726 826.5 721.0Q830 716 830 710Q830 703 826.5 698.0Q823 693 816 693Q786 693 768.0 681.0Q750 669 750 633V97Q750 57 765.0 45.0Q780 33 811 33Q818 33 821.5 28.0Q825 23 825 16Q825 0 811 0Q801 0 771.0 1.0Q741 2 695 2Q649 2 620.0 1.0Q591 0 580 0Q566 0 566 16Q566 23 570.0 28.0Q574 33 580 33Q618 33 639.5 43.5Q661 54 661 97V655Q661 661 656.5 662.0Q652 663 650 658Q649 654 636.5 619.5Q624 585 605.0 531.0Q586 477 563.5 412.5Q541 348 518.0 283.0Q495 218 475.5 162.5Q456 107 443.5 71.0Q431 35 429 29Q425 19 416 19Q407 19 404 28Q403 31 390.0 65.5Q377 100 356.0 154.5Q335 209 310.5 273.0Q286 337 261.5 400.5Q237 464 216.5 517.5Q196 571 183.5 603.5Q171 636 171 636Q170 639 166.0 638.5Q162 638 162 633V168Q162 116 174.5 87.0Q187 58 206.5 45.5Q226 33 247 33Q254 33 257.5 28.0Q261 23 261 16Q261 0 247 0Q237 0 214.5 1.0Q192 2 147 2Q95 2 76.5 1.0Q58 0 47 0Z" transform="translate(270.576, 72) scale(0.072, -0.072)" /><path d="M64 0Q50 0 50 16Q50 32 64 32Q99 32 108.0 44.0Q117 56 117 83V347Q117 372 112.0 380.5Q107 389 94 390Q87 392 75.0 393.0Q63 394 57 395Q44 398 44 412Q44 418 48.0 423.0Q52 428 58 428Q61 428 77.5 428.5Q94 429 115.0 429.0Q136 429 153.5 429.5Q171 430 176 430Q199 430 199 406V83Q199 56 207.5 44.0Q216 32 245 32Q259 32 259 16Q259 0 245 0Q235 0 208.0 1.0Q181 2 158 2Q134 2 104.5 1.0Q75 0 64 0ZM151 573Q128 573 112.0 589.5Q96 606 96 628Q96 651 112.0 667.0Q128 683 151 683Q174 683 190.0 667.0Q206 651 206 628Q206 606 190.0 589.5Q174 573 151 573Z" transform="translate(332.42400000000004, 72) scale(0.072, -0.072)" /><path d="M57 0Q43 0 43 16Q43 32 57 32Q87 32 96.0 43.0Q105 54 105 82V349Q105 366 103.0 376.5Q101 387 87 390Q80 392 70.5 393.5Q61 395 55 396Q42 397 42 412Q42 418 45.5 423.0Q49 428 56 428Q59 428 73.5 428.5Q88 429 106.5 429.0Q125 429 141.0 429.5Q157 430 162 430Q185 430 185 406V370Q185 367 187.5 366.5Q190 366 194 370Q213 396 245.0 419.0Q277 442 318 442Q350 442 379.0 430.5Q408 419 426.5 389.0Q445 359 445 303V84Q445 55 453.0 43.5Q461 32 483 32Q497 32 497 16Q497 0 483 0Q473 0 450.0 1.0Q427 2 404 2Q380 2 357.5 1.0Q335 0 324 0Q310 0 310 16Q310 32 324 32Q352 32 357.5 43.0Q363 54 363 82V291Q363 342 344.5 363.5Q326 385 291 385Q265 385 241.0 369.0Q217 353 202.0 326.5Q187 300 187 268V84Q187 55 194.0 43.5Q201 32 222 32Q236 32 236 16Q236 0 222 0Q212 0 191.0 1.0Q170 2 146 2Q122 2 94.5 1.0Q67 0 57 0Z" transform="translate(353.16, 72) scale(0.072, -0.072)" /><path d="M258 -12Q206 -12 158.0 11.5Q110 35 79.0 83.5Q48 132 48 207Q48 270 76.0 323.5Q104 377 154.5 409.5Q205 442 272 442Q308 442 341.0 430.0Q374 418 395.5 395.0Q417 372 417 340Q417 316 400.5 295.0Q384 274 359 274Q338 274 321.5 287.0Q305 300 305 322Q305 350 333 370Q345 379 332.5 391.5Q320 404 278 404Q260 404 237.0 394.5Q214 385 192.5 362.5Q171 340 157.5 302.0Q144 264 144 207Q144 127 181.0 79.5Q218 32 274 32Q312 32 339.5 48.5Q367 65 384.5 87.5Q402 110 409 126Q416 141 432 134Q446 128 441 114Q433 91 412.0 61.5Q391 32 354.0 10.0Q317 -12 258 -12Z" transform="translate(390.384, 72) scale(0.072, -0.072)" /><path d="M52 0Q45 0 41.5 5.0Q38 10 38 16Q38 23 41.5 28.0Q45 33 52 33Q87 33 96.0 43.5Q105 54 105 82V643Q105 668 100.0 676.5Q95 685 82 686Q75 687 63.0 688.5Q51 690 45 691Q32 693 32 707Q32 714 36.0 719.0Q40 724 46 724Q49 724 65.5 724.5Q82 725 103.0 725.0Q124 725 141.5 725.5Q159 726 164 726Q187 726 187 702V371Q187 368 189.5 367.0Q192 366 195 370Q217 397 248.5 419.5Q280 442 322 442Q354 442 382.0 430.0Q410 418 427.5 384.5Q445 351 445 288V84Q445 55 451.5 44.0Q458 33 476 33Q483 33 486.5 28.0Q490 23 490 16Q490 10 486.5 5.0Q483 0 476 0Q466 0 446.5 1.0Q427 2 404 2Q380 2 357.5 1.0Q335 0 324 0Q318 0 314.0 5.0Q310 10 310 16Q310 23 314.0 28.0Q318 33 324 33Q352 33 357.5 43.5Q363 54 363 82V280Q363 338 345.0 363.5Q327 389 290 389Q265 389 241.5 373.5Q218 358 202.5 332.5Q187 307 187 275V84Q187 55 195.5 44.0Q204 33 228 33Q235 33 238.5 28.0Q242 23 242 16Q242 10 238.5 5.0Q235 0 228 0Q218 0 194.0 1.0Q170 2 146 2Q122 2 92.5 1.0Q63 0 52 0Z" transform="translate(423.648, 72) scale(0.072, -0.072)" /><path d="M253 -12Q196 -12 148.5 19.0Q101 50 73.0 101.5Q45 153 45 215Q45 277 73.0 328.5Q101 380 148.5 411.0Q196 442 253 442Q311 442 358.5 411.0Q406 380 434.0 328.5Q462 277 462 215Q462 153 434.0 101.5Q406 50 358.5 19.0Q311 -12 253 -12ZM253 19Q309 19 337.0 73.0Q365 127 365 215Q365 303 337.0 357.0Q309 411 253 411Q198 411 169.5 357.0Q141 303 141 215Q141 127 169.5 73.0Q198 19 253 19Z" transform="translate(460.8, 72) scale(0.072, -0.072)" /></g></svg>
